icons/source/functional/align.svg

<?xml version="1.0" encoding="utf-8"?>
<!-- Generated by IcoMoon.io -->
<!DOCTYPE svg PUBLIC "-//W3C//DTD SVG 1.1//EN" "http://www.w3.org/Graphics/SVG/1.1/DTD/svg11.dtd">
<svg version="1.1" xmlns="http://www.w3.org/2000/svg" xmlns:xlink="http://www.w3.org/1999/xlink" width="32" height="32" viewBox="0 0 32 32">
<path d="M0 5.132h32v2h-32v-2zM6 9.132h20v2h-20v-2zM6 17.132h20v2h-20v-2zM6 25.132h20v2h-20v-2zM0 13.132h32v2h-32v-2zM0 21.132h32v2h-32v-2z"></path>
</svg>

<svg xmlns="http://www.w3.org/2000/svg" width="32" height="32" viewBox="0 0 32 32"><path d="M0 5.132h32v2H0v-2zm6 4h20v2H6v-2zm0 8h20v2H6v-2zm0 8h20v2H6v-2zm-6-12h32v2H0v-2zm0 8h32v2H0v-2z"/></svg>
